projects/flag-game/flags/Kenya.svg

<svg viewBox="0 0 1000 667" xmlns="http://www.w3.org/2000/svg" xmlns:xlink="http://www.w3.org/1999/xlink"><clipPath id="a"><path d="m0 0h1000v666.71875h-1000zm0 0"/></clipPath><clipPath id="b"><path d="m0 466h1000v200.71875h-1000zm0 0"/></clipPath><g clip-path="url(#a)"><path d="m0 666.667969v-666.667969h1000v666.667969zm0 0" fill="#fff" fill-rule="evenodd"/></g><path d="m0 0h1000v200h-1000zm0 0" fill-rule="evenodd"/><g clip-path="url(#b)"><path d="m0 466.667969h1000v200h-1000zm0 0" fill="#060" fill-rule="evenodd"/></g><path d="m380.917969 531.25 7.222656 4.167969 194.632813-337.121094c11.382812-3.050781 17.632812-13.878906 23.882812-24.703125 4.167969-7.214844 20.835938-36.082031 28.058594-73.59375-28.871094 25.011719-45.539063 53.878906-49.707032 61.09375-6.25 10.824219-12.5 21.652344-9.449218 33.035156zm0 0" fill-rule="evenodd"/><path d="m380.917969 531.25 7.222656 4.167969 194.632813-337.121094c11.382812-3.050781 17.632812-13.878906 23.882812-24.703125 4.167969-7.214844 20.832031-36.082031 28.058594-73.59375-28.871094 25.011719-45.539063 53.878906-49.703125 61.09375-6.253907 10.824219-12.503907 21.652344-9.453125 33.035156zm0 0" fill="none" stroke="#000" stroke-miterlimit="10" stroke-width="2.946279"/><path d="m380.917969 531.25 7.222656 4.167969 194.632813-337.121094c11.382812-3.050781 17.632812-13.878906 23.882812-24.703125 4.167969-7.214844 20.835938-36.082031 28.058594-73.59375-28.871094 25.011719-45.539063 53.878906-49.707032 61.09375-6.25 10.824219-12.5 21.652344-9.449218 33.035156zm0 0" fill="#fff" fill-rule="evenodd"/><path d="m619.082031 531.25-7.222656 4.167969-194.632813-337.121094c-11.382812-3.050781-17.632812-13.878906-23.882812-24.703125-4.167969-7.214844-20.835938-36.082031-28.058594-73.59375 28.871094 25.011719 45.539063 53.878906 49.707032 61.09375 6.25 10.824219 12.5 21.652344 9.449218 33.035156zm0 0" fill-rule="evenodd"/><path d="m619.078125 531.25-7.21875 4.167969-194.632813-337.121094c-11.382812-3.050781-17.632812-13.878906-23.882812-24.703125-4.167969-7.214844-20.832031-36.082031-28.0625-73.59375 28.875 25.011719 45.542969 53.878906 49.707031 61.09375 6.253907 10.824219 12.503907 21.652344 9.453125 33.035156zm0 0" fill="none" stroke="#000" stroke-miterlimit="10" stroke-width="2.946279"/><g fill-rule="evenodd"><path d="m619.082031 531.25-7.222656 4.167969-194.632813-337.121094c-11.382812-3.050781-17.632812-13.878906-23.882812-24.703125-4.167969-7.214844-20.835938-36.082031-28.058594-73.59375 28.871094 25.011719 45.539063 53.878906 49.707032 61.09375 6.25 10.824219 12.5 21.652344 9.449218 33.035156zm0 0" fill="#fff"/><path d="m0 233.332031v200h420.832031c12.5 33.335938 54.167969 100 79.167969 100s66.667969-66.664062 79.167969-100h420.832031v-200h-420.832031c-12.5-33.332031-54.167969-100-79.167969-100s-66.667969 66.667969-79.167969 100zm0 0" fill="#b00"/><path d="m579.167969 433.332031c12.5-33.332031 20.832031-66.664062 20.832031-100 0-33.332031-8.332031-66.664062-20.832031-100-12.5 33.335938-20.835938 66.667969-20.835938 100 0 33.335938 8.335938 66.667969 20.835938 100zm0 0"/><path d="m420.832031 433.332031c-12.5-33.332031-20.832031-66.664062-20.832031-100 0-33.332031 8.332031-66.664062 20.832031-100 12.5 33.335938 20.835938 66.667969 20.835938 100 0 33.335938-8.335938 66.667969-20.835938 100zm0 0"/><path d="m516.667969 333.332031c0 13.808594-7.460938 25-16.667969 25s-16.667969-11.191406-16.667969-25c0-13.804687 7.460938-25 16.667969-25s16.667969 11.195313 16.667969 25zm0 0" fill="#fff"/><path d="m504.167969 357.710938s16.664062 33.332031 16.664062 87.5c0 54.164062-16.664062 87.5-16.664062 87.5zm0 0" fill="#fff"/><path d="m495.832031 308.957031s-16.664062-33.332031-16.664062-87.5 16.664062-87.5 16.664062-87.5zm0 0" fill="#fff"/><path d="m495.832031 357.710938s-16.664062 33.332031-16.664062 87.5c0 54.164062 16.664062 87.5 16.664062 87.5zm0 0" fill="#fff"/><path d="m504.167969 308.957031s16.664062-33.332031 16.664062-87.5-16.664062-87.5-16.664062-87.5zm0 0" fill="#fff"/></g></svg>

<?xml version="1.0" encoding="UTF-8"?>
<svg xmlns="http://www.w3.org/2000/svg" xmlns:xlink="http://www.w3.org/1999/xlink" viewBox="0 0 1000 667" version="1.1">
<defs>
<clipPath id="clip1">
  <path d="M 0 0 L 1000 0 L 1000 666.71875 L 0 666.71875 Z M 0 0 "/>
</clipPath>
<clipPath id="clip2">
  <path d="M 0 466 L 1000 466 L 1000 666.71875 L 0 666.71875 Z M 0 466 "/>
</clipPath>
</defs>
<g id="surface645">
<g clip-path="url(#clip1)" clip-rule="nonzero">
<path style=" stroke:none;fill-rule:evenodd;fill:rgb(99.998474%,99.998474%,99.998474%);fill-opacity:1;" d="M 0 666.667969 L 0 0 L 1000 0 L 1000 666.667969 Z M 0 666.667969 "/>
</g>
<path style=" stroke:none;fill-rule:evenodd;fill:rgb(0%,0%,0%);fill-opacity:1;" d="M 0 0 L 1000 0 L 1000 200 L 0 200 Z M 0 0 "/>
<g clip-path="url(#clip2)" clip-rule="nonzero">
<path style=" stroke:none;fill-rule:evenodd;fill:rgb(0%,39.99939%,0%);fill-opacity:1;" d="M 0 466.667969 L 1000 466.667969 L 1000 666.667969 L 0 666.667969 Z M 0 466.667969 "/>
</g>
<path style=" stroke:none;fill-rule:evenodd;fill:rgb(0%,0%,0%);fill-opacity:1;" d="M 380.917969 531.25 L 388.140625 535.417969 L 582.773438 198.296875 C 594.15625 195.246094 600.40625 184.417969 606.65625 173.59375 C 610.824219 166.378906 627.492188 137.511719 634.714844 100 C 605.84375 125.011719 589.175781 153.878906 585.007812 161.09375 C 578.757812 171.917969 572.507812 182.746094 575.558594 194.128906 Z M 380.917969 531.25 "/>
<path style="fill:none;stroke-width:2.946279;stroke-linecap:butt;stroke-linejoin:miter;stroke:rgb(0%,0%,0%);stroke-opacity:1;stroke-miterlimit:10;" d="M 380.917969 531.25 L 388.140625 535.417969 L 582.773438 198.296875 C 594.15625 195.246094 600.40625 184.417969 606.65625 173.59375 C 610.824219 166.378906 627.488281 137.511719 634.714844 100 C 605.84375 125.011719 589.175781 153.878906 585.011719 161.09375 C 578.757812 171.917969 572.507812 182.746094 575.558594 194.128906 Z M 380.917969 531.25 "/>
<path style=" stroke:none;fill-rule:evenodd;fill:rgb(99.998474%,99.998474%,99.998474%);fill-opacity:1;" d="M 380.917969 531.25 L 388.140625 535.417969 L 582.773438 198.296875 C 594.15625 195.246094 600.40625 184.417969 606.65625 173.59375 C 610.824219 166.378906 627.492188 137.511719 634.714844 100 C 605.84375 125.011719 589.175781 153.878906 585.007812 161.09375 C 578.757812 171.917969 572.507812 182.746094 575.558594 194.128906 Z M 380.917969 531.25 "/>
<path style=" stroke:none;fill-rule:evenodd;fill:rgb(0%,0%,0%);fill-opacity:1;" d="M 619.082031 531.25 L 611.859375 535.417969 L 417.226562 198.296875 C 405.84375 195.246094 399.59375 184.417969 393.34375 173.59375 C 389.175781 166.378906 372.507812 137.511719 365.285156 100 C 394.15625 125.011719 410.824219 153.878906 414.992188 161.09375 C 421.242188 171.917969 427.492188 182.746094 424.441406 194.128906 Z M 619.082031 531.25 "/>
<path style="fill:none;stroke-width:2.946279;stroke-linecap:butt;stroke-linejoin:miter;stroke:rgb(0%,0%,0%);stroke-opacity:1;stroke-miterlimit:10;" d="M 619.078125 531.25 L 611.859375 535.417969 L 417.226562 198.296875 C 405.84375 195.246094 399.59375 184.417969 393.34375 173.59375 C 389.175781 166.378906 372.511719 137.511719 365.28125 100 C 394.15625 125.011719 410.824219 153.878906 414.988281 161.09375 C 421.242188 171.917969 427.492188 182.746094 424.441406 194.128906 Z M 619.078125 531.25 "/>
<path style=" stroke:none;fill-rule:evenodd;fill:rgb(99.998474%,99.998474%,99.998474%);fill-opacity:1;" d="M 619.082031 531.25 L 611.859375 535.417969 L 417.226562 198.296875 C 405.84375 195.246094 399.59375 184.417969 393.34375 173.59375 C 389.175781 166.378906 372.507812 137.511719 365.285156 100 C 394.15625 125.011719 410.824219 153.878906 414.992188 161.09375 C 421.242188 171.917969 427.492188 182.746094 424.441406 194.128906 Z M 619.082031 531.25 "/>
<path style=" stroke:none;fill-rule:evenodd;fill:rgb(73.332214%,0%,0%);fill-opacity:1;" d="M 0 233.332031 L 0 433.332031 L 420.832031 433.332031 C 433.332031 466.667969 475 533.332031 500 533.332031 C 525 533.332031 566.667969 466.667969 579.167969 433.332031 L 1000 433.332031 L 1000 233.332031 L 579.167969 233.332031 C 566.667969 200 525 133.332031 500 133.332031 C 475 133.332031 433.332031 200 420.832031 233.332031 Z M 0 233.332031 "/>
<path style=" stroke:none;fill-rule:evenodd;fill:rgb(0%,0%,0%);fill-opacity:1;" d="M 579.167969 433.332031 C 591.667969 400 600 366.667969 600 333.332031 C 600 300 591.667969 266.667969 579.167969 233.332031 C 566.667969 266.667969 558.332031 300 558.332031 333.332031 C 558.332031 366.667969 566.667969 400 579.167969 433.332031 Z M 579.167969 433.332031 "/>
<path style=" stroke:none;fill-rule:evenodd;fill:rgb(0%,0%,0%);fill-opacity:1;" d="M 420.832031 433.332031 C 408.332031 400 400 366.667969 400 333.332031 C 400 300 408.332031 266.667969 420.832031 233.332031 C 433.332031 266.667969 441.667969 300 441.667969 333.332031 C 441.667969 366.667969 433.332031 400 420.832031 433.332031 Z M 420.832031 433.332031 "/>
<path style=" stroke:none;fill-rule:evenodd;fill:rgb(99.998474%,99.998474%,99.998474%);fill-opacity:1;" d="M 516.667969 333.332031 C 516.667969 347.140625 509.207031 358.332031 500 358.332031 C 490.792969 358.332031 483.332031 347.140625 483.332031 333.332031 C 483.332031 319.527344 490.792969 308.332031 500 308.332031 C 509.207031 308.332031 516.667969 319.527344 516.667969 333.332031 Z M 516.667969 333.332031 "/>
<path style=" stroke:none;fill-rule:evenodd;fill:rgb(99.998474%,99.998474%,99.998474%);fill-opacity:1;" d="M 504.167969 357.710938 C 504.167969 357.710938 520.832031 391.042969 520.832031 445.210938 C 520.832031 499.375 504.167969 532.710938 504.167969 532.710938 Z M 504.167969 357.710938 "/>
<path style=" stroke:none;fill-rule:evenodd;fill:rgb(99.998474%,99.998474%,99.998474%);fill-opacity:1;" d="M 495.832031 308.957031 C 495.832031 308.957031 479.167969 275.625 479.167969 221.457031 C 479.167969 167.289062 495.832031 133.957031 495.832031 133.957031 Z M 495.832031 308.957031 "/>
<path style=" stroke:none;fill-rule:evenodd;fill:rgb(99.998474%,99.998474%,99.998474%);fill-opacity:1;" d="M 495.832031 357.710938 C 495.832031 357.710938 479.167969 391.042969 479.167969 445.210938 C 479.167969 499.375 495.832031 532.710938 495.832031 532.710938 Z M 495.832031 357.710938 "/>
<path style=" stroke:none;fill-rule:evenodd;fill:rgb(99.998474%,99.998474%,99.998474%);fill-opacity:1;" d="M 504.167969 308.957031 C 504.167969 308.957031 520.832031 275.625 520.832031 221.457031 C 520.832031 167.289062 504.167969 133.957031 504.167969 133.957031 Z M 504.167969 308.957031 "/>
</g>
</svg>
